src/24/actions/mail-forwarded.svg

<svg xmlns="http://www.w3.org/2000/svg" viewBox="0 0 24 24">
  <defs id="defs3051">
    <style type="text/css" id="current-color-scheme">
      .ColorScheme-Text {
        color:#5d656b;
      }
      </style>
  </defs>
 <path style="fill:currentColor;fill-opacity:1;stroke:none" 
     d="M 4 4 L 4 5 L 4 6 L 4 7 L 2 10 L 2 11 L 2 12.400391 L 2 13 L 2 19 L 2 19.414062 L 2 20 L 3 20 L 9 20 L 15 20 L 15 19 L 3 19 L 3 18.414062 L 3 17 L 3 13 L 3 12 L 3 11.400391 L 3 11 L 3.4003906 11 L 4 11 L 5.078125 11 L 12 14.996094 L 18.921875 11 L 19 11 L 20 11 L 21 11 L 21 11.400391 L 21 12 L 21 13 L 22 13 L 22 12.400391 L 22 10.986328 L 22 10 L 20 7 L 20 4 L 5 4 L 4 4 z M 5 5 L 19 5 L 19 6 L 19 9.7988281 L 12 13.839844 L 5 9.7988281 L 5 6 L 5 5 z M 6 6 L 6 6.9863281 L 5.9863281 7 L 6 7 L 18 7 L 18.013672 7 L 18 6.9863281 L 18 6 L 6 6 z M 6 8 L 6 9 L 13 9 L 13 8 L 6 8 z M 18.707031 13 L 18 13.707031 L 20.292969 16 L 16 16 L 16 17 L 20.292969 17 L 18 19.292969 L 18.707031 20 L 22 16.707031 L 22.207031 16.5 L 22 16.292969 L 18.707031 13 z "
     class="ColorScheme-Text"
     />
</svg>

<svg xmlns="http://www.w3.org/2000/svg" viewBox="0 0 24 24"><path d="M4 4v3l-2 3v10h13v-1H3v-8H5.078L12 14.996 18.922 11H21v2h1v-3l-2-3V4H4zm1 1h14V9.799l-7 4.04L5 9.8V5zm1 1v.986L5.986 7H18.014L18 6.986V6H6zm0 2v1h7V8H6zm12.707 5l-.707.707L20.293 16H16v1h4.293L18 19.293l.707.707L22 16.707l.207-.207-.207-.207L18.707 13z" fill="currentColor" color="#5d656b"/></svg>
